white/etc.svg

<!-- Generated by IcoMoon.io -->
<svg version="1.1" xmlns="http://www.w3.org/2000/svg" width="32" height="32" viewBox="0 0 32 32">
<title>etc</title>
<path fill="#fff" d="M16 32c-8.837 0-16-7.163-16-16s7.163-16 16-16 16 7.163 16 16-7.163 16-16 16zM22.732 16l-6.732-3.81-6.732 3.81 6.732 3.781 6.732-3.783zM16 21.047c16.906 8.848 14.617 7.537 12.327 6.227l-19.327-10.179c2.079 3.248 4.66 7.26 7 10.904 2.34-3.643 4.921-7.656 7-10.904-21.616 11.488-23.905 12.8-26.192 14.114l19.192-10.162zM16 10.958l7 3.907-7-10.865-7 10.866 7-3.907z"></path>
<path fill="#fff" opacity="0.8" d="M15.989 16.553l-6.721-0.577 6.72-3.802v4.379zM15.989 21.013v6.94c-2.337-3.638-4.913-7.642-6.989-10.883 2.45 1.38 5.008 2.823 6.989 3.944zM15.989 10.945l-6.989 3.9 6.989-10.845v6.945z"></path>
<path fill="#fff" opacity="0.5" d="M22.71 15.976l-6.721 0.577v-4.379l6.72 3.802zM15.989 21.014c1.98-1.12 4.537-2.564 6.988-3.944-2.076 3.242-4.652 7.246-6.988 10.882v-6.938zM15.989 10.945v-6.945l6.988 10.845-6.988-3.9z"></path>
<path fill="#fff" opacity="0.5" d="M15.988 16.553l-6.721-0.577 6.721 3.775z"></path>
</svg>

<svg xmlns="http://www.w3.org/2000/svg" width="32" height="32" viewBox="0 0 32 32"><g fill="#FFF" fill-rule="evenodd"><path d="M16 32C7.163 32 0 24.837 0 16S7.163 0 16 0s16 7.163 16 16-7.163 16-16 16zm6.732-16L16 12.19 9.268 16 16 19.781l6.732-3.783zM16 21.047a3944.37 3944.37 0 00-7-3.952c2.079 3.248 4.66 7.26 7 10.904 2.34-3.643 4.921-7.656 7-10.904a3944.185 3944.185 0 00-7 3.952zm0-10.089l7 3.907L16 4 9 14.866l7-3.907z"/><path fill-opacity=".8" fill-rule="nonzero" d="M15.989 16.553l-6.721-.577 6.72-3.802v4.379zm0 4.46v6.94C13.652 24.315 11.076 20.311 9 17.07c2.45 1.38 5.008 2.823 6.989 3.944zm0-10.068L9 14.845 15.989 4v6.945z"/><path fill-opacity=".5" fill-rule="nonzero" d="M22.71 15.976l-6.721.577v-4.379l6.72 3.802zm-6.721 5.038c1.98-1.12 4.537-2.564 6.988-3.944-2.076 3.242-4.652 7.246-6.988 10.882v-6.938zm0-10.069V4l6.988 10.845-6.988-3.9z"/><path fill-opacity=".5" d="M15.988 16.553l-6.721-.577 6.721 3.775z"/></g></svg>
